addons/popochiu/icons/look_at_point.svg

<svg height="16" viewBox="0 0 4.2333333 4.2333332" width="16" xmlns="http://www.w3.org/2000/svg"><g fill="#e0e0e0"><path d="m.79374996 2.6458333v1.3229166h1.32291664v-1.3229166z" stroke-width=".050322"/><path d="m1.1906249.26458333a.92604148.92604155 0 0 0 -.92604158.92604167.92604148.92604155 0 0 0 .92604158.9260416.92604148.92604155 0 0 0 .8741928-.6221842.3086805.3086805 0 0 0 .051849.00482.3086805.3086805 0 0 0 .053054-.00482.92604148.92604155 0 0 0 .8729874.6221842.92604148.92604155 0 0 0 .9260415-.9260416.92604148.92604155 0 0 0 -.9260415-.92604167.92604148.92604155 0 0 0 -.8729872.62218409.3086805.3086805 0 0 0 -.0530544-.0048231.3086805.3086805 0 0 0 -.0530545.0048231.92604148.92604155 0 0 0 -.8729871-.62218409zm-.1549432.30868051a.46253846.46302073 0 0 1 .462418.46302086.46253846.46302073 0 0 1 -.462418.4630208.46253846.46302073 0 0 1 -.46241787-.4630208.46253846.46302073 0 0 1 .46241787-.46302086zm1.8526861 0a.46302073.46302077 0 0 1 .4630207.46302086.46302073.46302077 0 0 1 -.4630207.4630208.46302073.46302077 0 0 1 -.4630208-.4630208.46302073.46302077 0 0 1 .4630208-.46302086z" stroke-width=".30868"/></g></svg>

<?xml version="1.0" encoding="UTF-8" standalone="no"?>
<!-- Created with Inkscape (http://www.inkscape.org/) -->

<svg
   width="16"
   height="16"
   viewBox="0 0 4.2333333 4.2333332"
   version="1.1"
   id="svg1"
   inkscape:version="1.3.2 (091e20ef0f, 2023-11-25, custom)"
   sodipodi:docname="look_at_point_2.svg"
   xmlns:inkscape="http://www.inkscape.org/namespaces/inkscape"
   xmlns:sodipodi="http://sodipodi.sourceforge.net/DTD/sodipodi-0.dtd"
   xmlns="http://www.w3.org/2000/svg"
   xmlns:svg="http://www.w3.org/2000/svg">
  <sodipodi:namedview
     id="namedview1"
     pagecolor="#ffffff"
     bordercolor="#000000"
     borderopacity="0.25"
     inkscape:showpageshadow="false"
     inkscape:pageopacity="0.0"
     inkscape:pagecheckerboard="0"
     inkscape:deskcolor="#d1d1d1"
     inkscape:document-units="mm"
     shape-rendering="crispEdges"
     showborder="false"
     borderlayer="true"
     showgrid="true"
     inkscape:zoom="64"
     inkscape:cx="7.8046875"
     inkscape:cy="6.84375"
     inkscape:window-width="2512"
     inkscape:window-height="1385"
     inkscape:window-x="48"
     inkscape:window-y="27"
     inkscape:window-maximized="1"
     inkscape:current-layer="layer1">
    <inkscape:grid
       id="grid1"
       units="px"
       originx="0"
       originy="0"
       spacingx="0.26458333"
       spacingy="0.26458333"
       empcolor="#0099e5"
       empopacity="0.30196078"
       color="#0099e5"
       opacity="0.14901961"
       empspacing="1"
       dotted="false"
       gridanglex="30"
       gridanglez="30"
       visible="true" />
  </sodipodi:namedview>
  <defs
     id="defs1" />
  <g
     inkscape:label="Livello 1"
     inkscape:groupmode="layer"
     id="layer1">
    <path
       id="rect1"
       style="fill:#e0e0e0;fill-opacity:1;stroke-width:0.050322"
       d="M 0.79374996,2.6458333 V 3.9687499 H 2.1166666 V 2.6458333 Z"
       sodipodi:nodetypes="ccccc" />
    <path
       id="path9"
       style="fill:#e0e0e0;stroke-width:0.30868"
       d="M 1.1906249,0.26458333 A 0.92604148,0.92604155 0 0 0 0.26458332,1.190625 0.92604148,0.92604155 0 0 0 1.1906249,2.1166666 0.92604148,0.92604155 0 0 0 2.0648177,1.4944824 a 0.3086805,0.3086805 0 0 0 0.051849,0.00482 0.3086805,0.3086805 0 0 0 0.053054,-0.00482 A 0.92604148,0.92604155 0 0 0 3.0427081,2.1166666 0.92604148,0.92604155 0 0 0 3.9687496,1.190625 0.92604148,0.92604155 0 0 0 3.0427081,0.26458333 0.92604148,0.92604155 0 0 0 2.1697209,0.88676742 0.3086805,0.3086805 0 0 0 2.1166665,0.88194432 0.3086805,0.3086805 0 0 0 2.063612,0.88676742 0.92604148,0.92604155 0 0 0 1.1906249,0.26458333 Z M 1.0356817,0.57326384 A 0.46253846,0.46302073 0 0 1 1.4980997,1.0362847 0.46253846,0.46302073 0 0 1 1.0356817,1.4993055 0.46253846,0.46302073 0 0 1 0.57326383,1.0362847 0.46253846,0.46302073 0 0 1 1.0356817,0.57326384 Z m 1.8526861,0 A 0.46302073,0.46302077 0 0 1 3.3513885,1.0362847 0.46302073,0.46302077 0 0 1 2.8883678,1.4993055 0.46302073,0.46302077 0 0 1 2.425347,1.0362847 0.46302073,0.46302077 0 0 1 2.8883678,0.57326384 Z" />
  </g>
</svg>
